src/assets/icons/calendar.svg

<svg width="20" height="20" viewBox="0 0 20 20" fill="none" xmlns="http://www.w3.org/2000/svg">
<path fill-rule="evenodd" clip-rule="evenodd" d="M6.67187 1.66536C6.67187 1.20513 6.29878 0.832031 5.83854 0.832031C5.3783 0.832031 5.00521 1.20513 5.00521 1.66536V2.4987H4.17187C3.50883 2.4987 2.87295 2.76209 2.40411 3.23093C1.93527 3.69977 1.67188 4.33566 1.67188 4.9987V15.832C1.67188 16.4951 1.93527 17.131 2.40411 17.5998C2.87295 18.0686 3.50883 18.332 4.17187 18.332H15.8385C16.5016 18.332 17.1375 18.0686 17.6063 17.5998C18.0751 17.131 18.3385 16.4951 18.3385 15.832V4.9987C18.3385 4.33566 18.0751 3.69977 17.6063 3.23093C17.1375 2.76209 16.5016 2.4987 15.8385 2.4987H15.4219C14.9616 2.4987 14.5885 2.87179 14.5885 3.33203C14.5885 3.79227 14.9616 4.16536 15.4219 4.16536H15.8385C16.0596 4.16536 16.2715 4.25316 16.4278 4.40944C16.5841 4.56572 16.6719 4.77768 16.6719 4.9987V7.4987H3.33854V4.9987C3.33854 4.77768 3.42634 4.56572 3.58262 4.40944C3.7389 4.25316 3.95086 4.16536 4.17187 4.16536H5.00521V4.9987C5.00521 5.45894 5.3783 5.83203 5.83854 5.83203C6.29878 5.83203 6.67187 5.45894 6.67187 4.9987V1.66536ZM3.58262 16.4213C3.42634 16.265 3.33854 16.053 3.33854 15.832V9.16536H16.6719V15.832C16.6719 16.053 16.5841 16.265 16.4278 16.4213C16.2715 16.5776 16.0596 16.6654 15.8385 16.6654H4.17187C3.95086 16.6654 3.7389 16.5776 3.58262 16.4213Z" fill="#E2C576"/>
<path d="M13.3385 1.66536C13.3385 1.20513 12.9654 0.832031 12.5052 0.832031C12.045 0.832031 11.6719 1.20513 11.6719 1.66536V2.4987H8.75521C8.29497 2.4987 7.92187 2.87179 7.92187 3.33203C7.92187 3.79227 8.29497 4.16536 8.75521 4.16536H11.6719V4.9987C11.6719 5.45894 12.045 5.83203 12.5052 5.83203C12.9654 5.83203 13.3385 5.45894 13.3385 4.9987V1.66536Z" fill="#E2C576"/>
</svg>

<svg xmlns="http://www.w3.org/2000/svg" width="20" height="20" fill="none"><path fill="#E2C576" fill-rule="evenodd" d="M6.672 1.665a.833.833 0 0 0-1.667 0V2.5h-.833a2.5 2.5 0 0 0-2.5 2.5v10.833a2.5 2.5 0 0 0 2.5 2.5h11.667a2.5 2.5 0 0 0 2.5-2.5V4.999a2.5 2.5 0 0 0-2.5-2.5h-.417a.833.833 0 1 0 0 1.666h.416a.833.833 0 0 1 .834.834v2.5H3.339v-2.5a.833.833 0 0 1 .833-.834h.833V5a.833.833 0 1 0 1.667 0zm-3.09 14.756a.83.83 0 0 1-.243-.589V9.165h13.333v6.667a.833.833 0 0 1-.834.833H4.172a.83.83 0 0 1-.59-.244" clip-rule="evenodd"/><path fill="#E2C576" d="M13.339 1.665a.833.833 0 0 0-1.667 0V2.5H8.755a.833.833 0 1 0 0 1.666h2.917V5a.833.833 0 1 0 1.666 0z"/></svg>
